src/icons/x.svg

<svg width="24" height="24" viewBox="0 0 24 24" fill="none" xmlns="http://www.w3.org/2000/svg">
<path d="M10.8057 15.5995L4.1572 23.9978H0.474609L9.08566 13.1155L10.8057 15.5995Z" fill="white"/>
<path d="M12.8203 7.704L18.9079 0H22.5881L14.5249 10.2017L12.8203 7.704Z" fill="white"/>
<path d="M24 24H16.5938L0 0H7.59375L24 24ZM17.6095 21.5631H19.6488L6.4858 2.30914H4.29778L17.6095 21.5631Z" fill="white"/>
</svg>

<svg width="24" height="24" fill="none" xmlns="http://www.w3.org/2000/svg"><path d="m10.806 15.6-6.649 8.398H.475l8.61-10.883 1.72 2.485zM12.82 7.704 18.908 0h3.68l-8.063 10.202-1.705-2.498z" fill="#fff"/><path d="M24 24h-7.406L0 0h7.594L24 24zm-6.39-2.437h2.039L6.486 2.31H4.298L17.61 21.563z" fill="#fff"/></svg>
